dist/svgs/crypto-icons/icons/bnt.svg

<?xml version="1.0" encoding="UTF-8" standalone="yes"?>
<svg xmlns="http://www.w3.org/2000/svg" xmlns:xlink="http://www.w3.org/1999/xlink" width="332px" height="510.66666666666663px" viewBox="0 0 249 383" version="1.1">
  <g id="surface1">
    <path style=" stroke:none;fill-rule:evenodd;fill:rgb(0%,0%,0%);fill-opacity:1;" d="M 203.507812 52.261719 L 112.929688 0 L 24.339844 52.261719 L 67.039062 77.398438 L 98.164062 95.75 L 112.929688 104.527344 L 120.109375 100.136719 L 160.414062 77.398438 Z M 179.566406 248.949219 L 127.691406 278.472656 L 127.691406 383 L 249 313.980469 L 249 209.453125 L 225.855469 222.617188 Z M 127.691406 137.242188 L 127.691406 241.371094 L 196.726562 201.871094 L 218.273438 189.503906 L 218.273438 84.976562 L 211.492188 88.570312 L 171.585938 112.507812 Z M 16.757812 94.554688 L 0 84.976562 L 0 189.503906 L 51.078125 219.027344 L 90.582031 241.371094 L 90.582031 137.242188 L 47.085938 112.507812 Z M 0 226.609375 L 0 330.738281 L 90.582031 383 L 90.582031 278.472656 L 39.503906 248.949219 Z M 0 226.609375 "/>
  </g>
</svg>

<svg xmlns="http://www.w3.org/2000/svg" viewBox="0 0 249 383"><path fill-rule="evenodd" d="M203.508 52.262L112.93 0 24.34 52.262l42.7 25.136L98.163 95.75l14.766 8.777 7.18-4.39 40.304-22.739zm-23.942 196.687l-51.875 29.524V383L249 313.98V209.453l-23.145 13.164zm-51.875-111.707v104.13l69.036-39.5 21.546-12.368V84.977l-6.78 3.593-39.907 23.938zM16.758 94.555L0 84.977v104.527l51.078 29.523 39.504 22.344V137.242l-43.496-24.734zM0 226.609v104.13L90.582 383V278.473l-51.078-29.524zm0 0"/></svg>
